X:510
T:Kilavel
R:jig
Z:Transcribed by Dave Marshall
M:6/8
K:G
|:BEE BEE|d2f edB|BAF ~F3|DFA BAF|
BEE BEE|d2f edB|BAB dAF|FED E3:|
|:Bef gfe|~f3 edB|BAF ~F3|DFA BAF|
Bef gfe|~f3 edB|BAF dAF|FED E3:|
